X:296
T: Jack in the Green
N: O'Farrell's Pocket Companion v.3 (Sky ed. p.132)
N: "Irish"
M: 9/8
L: 1/8
R: slip jig
Q: 320
K: G
d|: g2g gfg efg| a2a abg fed| g2g gfg e3| def gdB BAG :|
F2A G2B A2d| d^cd AB=c BAG| F2A G2B A2d| def gdB BAG :|
